X:261
T:Jock Hosie's Fancy 
C:Joe Buchanan's Scottish Tome - Page 308.1
I:308 1
C:Lindsay Ross
R:Jig
Z:Carl Allison
L:1/8
M:6/8
K:A
E |"A" A3 a2 f |"A"efe cBA | "Bm"B2 F d2 c | "Bm"BcA "E7"GFE |
"A" A3 a2 f |"A"efe cde | "D"fga "E7"bge | "A"a3 a2 :|
e | "A"aec cde |"Bm" fdB Bcd |"A" ecA edc | "E7"BGE E2 e |
"A"aec cde |"Bm" fdB Bcd |"A" ecA "E7"edc | "A"A3 A2 e |
"A"aec cde |"Bm" fdB Bcd |"A" ecA "E7"edc |"E7"BGE EFG |
"A" A3 a2 f | "A"efe cde | "D"fga "E7"bge | "A"a3 a3 |]

